!!!COM: Hugo Wolf
!!!CNT: Deutscher
!!!TXO: Deutsche 
!!!OTL: Zitronenfalter im April
!!!ONM: No. 18
!!!ODT: 1888/
!!!LYR: Moericke
!!!ENC: Brian Bice
!!!YOR: 65 Songs for voice and piano, International Music Company, 1960
!!NB: Vocal melody and text only encoded.
**kern	**silbe
*clefG2	*
*k[]	*
*M3/8	*
=5	=5
{8cc	{Grau-
8cc	-sa-
8cc	-me
=6	=6
4cc	Fru2h-
8b	-lings-
=7	=7
4a	-son-
8e	-ne,
=9	=9
8cc	du
8cc	weckst
8cc	mich
=10	=10
(8ee	vor
8dd)	|
8cc	der
=11	=11
4.dd}	Zeit,}
=13	=13
{8ee	{dem
8ee	nur
8ee	in
=14	=14
(8ee	Mai-
8aa)	|
8gg	-en-
=15	=15
(4gg	-won-
8ff)	|
=16	=16
4ee	-ne
8ee	die
=17	=17
4dd	zar-
8cc	-te
=18	=18
4b	Kost
8a	ge-
=19	=19
[4.ee	-deiht!
=20	=20
4ee]}	|}
8r	.
=25	=25
*k[f#c#g#]	*
{8cc#	{Ist
8cc#	nicht
8cc#	ein
=26	=26
4cc#	lie-
8b	-bes
=27	=27
4a	Ma2d-
8e	-chen
=28	=28
4e}	hier,}
8r	.
=29	=29
{8cc#	{das
8cc#	suf
8cc#	der
=30	=30
(8dd#	Ros-
8ee)	|
8ff#	-en-
=31	=31
4ee	-lip-
8b	-pe
=32	=32
(4b	mir
8b#)}	|}
=33	=33
{8cc#	{ein
8cc#	Tro2pf-
8cc#	-chen
=34	=34
(8cc#	Ho-
8ff#)	|
8ee	-nig
=35	=35
[4.dd#	beut,
=36	=36
4dd#]}	|}
8r	.
=37	=37
16r	.
{16ee	{so
8ee	muss
8ggn	ich
=38	=38
8.ff#	ja2m-
16ee	-mer-
16dd	-lich
16cc#	ver-
=39	=39
8dd}	-gehn,}
16r	.
{16cc#	{und
16b	wird
16cc#	der
=40	=40
8dd	Mai
8ffn	mich
16ee	nim-
16dd	-mer
=41	=41
(8cc#	sehn
8ee)}	|}
{8dd	{in
=42	=42
4cc#	mei-
8cc#	-nem
=43	=43
4b	gel-
8b	-ben
=44	=44
([4.ee	Kleid,
=45	=45
8ee]	|
8dd#)}	|}
{8ddn	{in
=46	=46
4cc#	mei-
8ee	-nem
=47	=47
4cc#	gel-
8b	-ben
=48	=48
4.a}	Kleid.}
*-	*-
